app/assets/images/mfa-options/backup_code.svg

<svg width="42" height="48" viewBox="0 0 42 48" fill="none" xmlns="http://www.w3.org/2000/svg"><path fill-rule="evenodd" clip-rule="evenodd" d="M5.88332 11.767C2.63405 11.767 0 14.401 0 17.6503C0 20.8985 2.63224 23.5318 5.87997 23.5336C2.63224 23.5354 0 26.1688 0 29.4169C0 32.6662 2.63405 35.3003 5.88332 35.3003H8.6925L8.16827 40.605C7.84872 43.8385 10.211 46.7189 13.4445 47.0384C15.9176 47.2828 18.184 45.9585 19.2563 43.8754C20.1401 45.5894 21.8478 46.8346 23.9099 47.0384C27.1434 47.3579 30.0237 44.9957 30.3433 41.7622L30.9819 35.3003H36.1167C39.3659 35.3003 42 32.6662 42 29.4169C42 26.1688 39.3678 23.5354 36.12 23.5336C39.3678 23.5318 42 20.8985 42 17.6503C42 14.401 39.3659 11.767 36.1167 11.767H33.3075L33.8317 6.46225C34.1513 3.22873 31.789 0.348406 28.5555 0.028858C26.0824 -0.215541 23.816 1.1088 22.7437 3.19187C21.8599 1.47781 20.1522 0.232636 18.0901 0.028858C14.8566 -0.29069 11.9763 2.07155 11.6567 5.30507L11.0181 11.767H5.88332ZM5.88396 15.6886C4.80087 15.6886 3.92285 16.5666 3.92285 17.6497C3.92285 18.7328 4.80087 19.6108 5.88396 19.6108H14.1849L13.4097 27.4552H5.88396C4.80087 27.4552 3.92285 28.3332 3.92285 29.4163C3.92285 30.4994 4.80087 31.3774 5.88396 31.3774H13.0221L12.0721 40.9901C11.9656 42.0679 12.753 43.028 13.8308 43.1346C14.9087 43.2411 15.8688 42.4537 15.9753 41.3758L16.9634 31.3774H23.4875L22.5375 40.9901C22.431 42.0679 23.2184 43.028 24.2962 43.1346C25.3741 43.2411 26.3342 42.4537 26.4407 41.3758L27.4288 31.3774H36.1173C37.2004 31.3774 38.0784 30.4994 38.0784 29.4163C38.0784 28.3332 37.2004 27.4552 36.1173 27.4552H27.8164L28.5916 19.6108H36.1173C37.2004 19.6108 38.0784 18.7328 38.0784 17.6497C38.0784 16.5666 37.2004 15.6886 36.1173 15.6886H28.9792L29.9292 6.0759C30.0357 4.99806 29.2483 4.03795 28.1704 3.93143C27.0926 3.82492 26.1325 4.61233 26.026 5.69017L25.0379 15.6886H18.5138L19.4638 6.0759C19.5703 4.99806 18.7829 4.03795 17.705 3.93143C16.6272 3.82492 15.6671 4.61233 15.5606 5.69017L14.5725 15.6886H5.88396ZM17.351 27.4552L18.1262 19.6108H24.6503L23.8751 27.4552H17.351Z" fill="#0071BB"/></svg>

<svg width="42" height="48" viewBox="0 0 42 48" fill="none" xmlns="http://www.w3.org/2000/svg"><path fill-rule="evenodd" clip-rule="evenodd" d="M5.883 11.767a5.883 5.883 0 0 0-.003 11.767A5.883 5.883 0 0 0 5.883 35.3h2.81l-.525 5.305a5.883 5.883 0 0 0 11.088 3.27 5.883 5.883 0 0 0 11.087-2.113l.639-6.462h5.135a5.883 5.883 0 0 0 .003-11.766 5.883 5.883 0 0 0-.003-11.767h-2.81l.525-5.305a5.883 5.883 0 0 0-11.088-3.27 5.883 5.883 0 0 0-11.087 2.113l-.639 6.462H5.883Zm.001 3.922a1.961 1.961 0 1 0 0 3.922h8.3l-.774 7.844H5.884a1.961 1.961 0 1 0 0 3.922h7.138l-.95 9.613a1.961 1.961 0 0 0 3.903.386l.988-9.999h6.524l-.95 9.613a1.961 1.961 0 0 0 3.904.386l.988-9.999h8.688a1.961 1.961 0 1 0 0-3.922h-8.3l.775-7.844h7.525a1.961 1.961 0 1 0 0-3.922H28.98l.95-9.613a1.961 1.961 0 0 0-3.903-.386l-.988 9.999h-6.524l.95-9.613a1.961 1.961 0 0 0-3.903-.386l-.989 9.999H5.884Zm11.467 11.766.775-7.844h6.524l-.775 7.844h-6.524Z" fill="#0071BB"/></svg>
